!!!OTL: Zum letztenmal.
!!!OTL-incipit: ASSA WILL I GEHN ZUM BAUERMOIDALA
!!!ARE: Europa, Mitteleuropa, Deutschland, Boehmen
!!!SCT: Z1230
!!!YEM: Copyright 1995, estate of Helmut Schaffrath.
**kern	**text
*ICvox	*
*M4/4	*
*met(c)	*
*k[f#]	*
*G:	*
=1	=1
!LO:TX:a:t=Aus Böhmen.	!
{8b	Aſ-
8b	-ſa
8cc	will
8dd	i
(8ccL	gehn
8bJ)	.
(8aL	ʒum
8gJ)	.
=2	=2
4b	Bauer-
(8ccL	.
8ddJ)	.
(8ccL	-moi-
8bJ)	.
8a	-da-
8g}	-la,
=3	=3
{4g	wau
(8bL	dea
8ddJ)	.
4g	Hund
(8bL	hangt
8ddJ)	.
=4	=4
(8eeL	vua
8ddJ)	.
(8ccL	dea
8bJ)	.
(4b	Thüa,
4a)}	.
=5	=5
{4b	will
8cc	ſie
8cc	mi
4dd	nim-
4b	-ma
=6	=6
(8ddL	ei-
8ccJ)	.
(8bL	-ne
8aJ)	.
4b	lau-
4g}	-ßen,
=7	=7
{4a	will
8b	ſie
8b	mi
4cc	wie-
4a	-da
=8	=8
(8ddL	aſ-
8ccJ)	.
(8bL	-ſa
8aJ)	.
4b	ſtau-
4g}	-ßen!
=9	=9
{2g	ʒu
2a	dia
=10	=10
4b	kumm
(8ddL	i
8eeJ)	.
4b	nim-
4a	-ma
=11	=11
1g}	mea.
==	==
!!!AGN: Liebes - Lied
!!!ONB: ESAC (Essen Associative Code) Database: ZUCCAL
!!!AMT: simple quadruple
!!!AIN: vox
!!!EED: Helmut Schaffrath
!!!EEV: 1.0
!!!GTL: V. Lieder der Minne.
!!!URL-scan: https://www.digitale-sammlungen.de/de/view/bsb11160573?page=442
!!!ENC: Anna Maria Matuszewska
!!!EEV: 2025/02/06
*-	*-
